style-guide/assets/wds-icons-play.svg

<svg xmlns="http://www.w3.org/2000/svg" xmlns:xlink="http://www.w3.org/1999/xlink" width="24" height="24" viewBox="0 0 24 24">
  <defs>
    <path id="play-a" d="M3,5.47584139 L3,18.5228414 L19.308,11.9988414 L3,5.47584139 Z M2,20.9988414 C1.803,20.9988414 1.607,20.9408414 1.439,20.8278414 C1.165,20.6418414 1,20.3308414 1,19.9988414 L1,3.99884139 C1,3.66684139 1.165,3.35684139 1.439,3.17084139 C1.715,2.98584139 2.063,2.94884139 2.372,3.07084139 L22.372,11.0708414 C22.751,11.2228414 23,11.5908414 23,11.9988414 C23,12.4078414 22.751,12.7758414 22.372,12.9278414 L2.372,20.9278414 C2.251,20.9758414 2.125,20.9988414 2,20.9988414 Z"/>
  </defs>
  <use fill-rule="evenodd" xlink:href="#play-a"/>
</svg>

<svg viewBox="0 0 24 24" xmlns="http://www.w3.org/2000/svg">
  <path d="M3 5.476v13.047l16.308-6.524L3 5.476zM2 20.999c-.197 0-.393-.058-.561-.171a1.003 1.003 0 0 1-.439-.83v-16a1.001 1.001 0 0 1 1.372-.927l20 8a1 1 0 0 1 0 1.857l-20 8a1.007 1.007 0 0 1-.372.07z"/>
</svg>
